X: 10025
T: EILEEN CARSON'S
C: Bob McQuillen 22 Aug 93
B: Bob's Note Book 10 #25
%R: reel, hornpipe
Z: 2021 John Chambers <jc:trillian.mit.edu>
M: C
L: 1/8
K: G
GA \
| BcdB A2BA | GABG EGAB | c2ec B2dB | ABcA FDGA |\
| BcdB A2BA | GABG EGAB | cedc BGAG | D2G2 G2 :|
|: DC \
| B,DGD B,DGB | DGBd edBG | DGBd cBAG | FAGE DEDC |\
| B,DGD B,DGB | DGBd edBd | edcB cAFG | A2G2 G2 :|
%%begintext align
%% Eileen Carson is one of the greats
%% in my life, and if you're ever had the pleasure of watching the Fiddle
%% Puppets dance, then she is in yours, too. Eileen heads up that wonderful
%% clogging group, and every year I am lucky enough to be at Augusta to
%% enjoy their marvelous performance. Thanks a million, Eileen, forall
%% the fun you have given us over the years - it's a real treat to watch
%% your feet! (And you, too, my dear - you're fabulous!)
%%endtext

%%sep 1 1 500

%%sep 1 1 500

